X:1
T:Ave Maria (A.)
T:Jacob Arcadelt (Liegi, 14 ottobre 1504 o 1505 – Parigi, 4 ottobre 1568)
T:Scritto con MuseScore, un software libero e gratuito: http://musescore.org/it
T:Scritto con MuseScore, un software libero e gratuito: http://musescore.org/it
T:Scritto con MuseScore, un software libero e gratuito: http://musescore.org/it
T:Scritto con MuseScore, un software libero e gratuito: http://musescore.org/it
T:Scritto con MuseScore, un software libero e gratuito: http://musescore.org/it
Z:Scritto con MuseScore, un software libero e gratuito: http://musescore.org/it
%%score 1 2 3 4
L:1/8
M:4/4
K:F
V:1 treble nm="Soprano"
V:2 treble nm="Alto"
V:3 treble-8 nm="Tenor"
V:4 bass nm="Bass"
V:1
 z2!p!"^Andante moderato" A2 G2 A2 | (F2 G2) !breath!A4 |!<(! A2 c2 c4!<)! |!>(! (B2 A2) G4!>)! | %4
 z2 A2 G2 A2 | (F2 G2) !breath!A4 |!<(! (G2 A2) BA GF!<)! |!>(! G4 !breath!F4!>)! |!mf! F2 c2 c4 | %9
!<(! (d2 e2) !breath!f4!<)! |!>(! e2 c2 c2 d2!>)! | !breath!e2!f! f2 !^!fe dc | %12
 d3 d !breath!!fermata!c2!p! F2 | c2!<(! c2 (d2 e2)!<)! | !breath!f4!mf! e2 c2 | %15
 (c2!<(! d2) e2 ((f2!<)! | f))e"^poco rit." dc!>(! !^!d4!>)! | c4 z4 | z2!f! f2"^a tempo" f2 e2 | %19
 d4 !breath!^c4 |!p! =c4 d4 | d4 c2 BA | B4 A4 | z2!mf! A2 c2 d2 |!>(! c4 !breath!B4!>)! | %25
 A4 G2 A2 | BA!>(! GF G4!>)! | !breath!F4!p! (F2 !breath!A2) | c2 d2 c2 !breath!B2 | %29
"^più lento" A4 G2 A2 | BA (GF)!>(! G4!>)! | !breath!!fermata!F4!pp!"^largo" F4 | %32
!>(! !fermata!F8!>)! |] %33
V:2
 z2!p! F2 E2 C2 | (D2 E2) !breath!F4 |!<(! F2 F2 F4!<)! |!>(! F4 E4!>)! | z2 F2 E2 C2 | %5
w: |||||
w: A\- ve Ma\-|ri \- a,|grà\- ti\- a|ple\- na,|Dò\- mi\- nus|
 (D2 E2) F4 |!<(! (E2 F2) F2 D2!<)! |!>(! E4 !breath!F4!>)! |!mf! F2 F2 F4 | %9
w: ||||
w: te \- cum,|a \- ve Ma\-|ri\- a;|be\- ne\- di\-|
!<(! (F2 A2) !breath!A4!<)! |!>(! A2 E2 E2 G2!>)! | !breath!G2 A2!f! G2 E2 | %12
w: |||
w: cta * tu,|be\- ne\- di\- cta|tu in mu\- li\-|
 G3 G !breath!!fermata!E2!p! F2 | F2!<(! F2 (F2 A2)!<)! | !breath!A4!mf! A2 E2 | %15
w: |||
w: é\- ri\- bus, et|be\- ne\- di \-|ctus frù\- ctus|
 (E2!<(! G2) G2 (A2!<)! | G2) E2"^poco rit."!>(! !^!G4!>)! | E4 z4 | z2!f!"^a tempo" A2 A2 A2 | %19
w: ||||
w: ven \- tris tu-|* i Jé\-|sus.|San\- cta Ma\-|
 F4 !breath!E4 |!p! E4 F4 | F4 F2 F2 | F4 F4 | z2!mf! F2 F2 F2 |!>(! F4 !breath!D4!>)! | F4 C2 C2 | %26
w: |||||||
w: ri\- a,|ò\- ra,|ò\- ra pro|nò\- bis,|San\- cta Ma\-|ri\- a,|ò\- ra, ò\-|
 D2!>(! A,2 C4!>)! | !breath!C4!p! (C2 F2) | E2 F2 F2 D2 |"^più lento" F4 C2 C2 | %30
w: ||||
w: ra pro nò\-|bis, San \-|cta Ma\- ri\- a,|ò\- ra, ò\-|
 D2 A,2!>(! C4!>)! | !fermata!C4!pp!"^largo" D4 |!>(! !fermata!C8!>)! |] %33
w: |||
w: ra pro nò\-|bis. A\-|men.|
V:3
 z2!p! c2 c2 A2 | (A2 c2) !breath!c4 |!<(! c2 A2 A4!<)! |!>(! (d2 c2) c4!>)! | z2 c2 c2 A2 | %5
 (A2 c2) c4 |!<(! c4 d2 A2!<)! |!>(! c4 !breath!A4!>)! |!mf! A2 A2 A4 | %9
!<(! (A2 ^c2) !breath!d4!<)! |!>(! =c2 c2 c2 =B2!>)! | !breath!c2!f! c2 c2 c2 | %12
 =B3 B !breath!!fermata!c2!p! A2 |!<(! A2 A2 (A2 ^c2)!<)! | !breath!d4!mf! =c2 c2 | %15
 (c2!<(! =B2) c2 c2!<)! |"^poco rit." c4!>(! !^!c2 =B2!>)! | c4 z4 | z2"^a tempo"!f! c2 c2 c2 | %19
 A4 !breath!A4 |!p! A4 !courtesy!_B4 | B4 A2 c2 | d4 c4 | z2!mf! c2 A2 B2 |!>(! A4 !breath!G4!>)! | %25
 A4 c2 F2 | F2!>(! F2 (F2 E2)!>)! | !breath!F4 (A2 F2) | G2 B2 A2 !breath!G2 | %29
"^più lento" A4 c2 F2 | F2 F2!>(! (F2 E2)!>)! | !fermata!F4!pp!"^largo" B4 | !fermata!A8 |] %33
V:4
 z2!p! F,2 C,2 F,2 | (D,2 C,2) !breath!F,4 |!<(! F,2 F,2 F,4!<)! |!>(! B,,2 F,2 C,4!>)! | %4
 z2 F,2 C,2 F,2 | (D,2 C,2) !breath!F,4 |!<(! C,2 F,2 B,,2 D,2!<)! |!>(! C,4 F,,4!>)! | %8
!mf! F,2 F,2 F,4 |!<(! (D,2 A,,2) !breath!D,4!<)! |!>(! A,2"^crescendo" A,2 A,2 G,2!>)! | %11
 !breath!C,2!f! F,2 C,2 A,2 | G,2 G,,2 !breath!!fermata!C,2!p! F,2 | F,2!<(! F,2 D,2 A,,2!<)! | %14
 !breath!D,4!mf! A,2 A,2 | (A,2!<(! G,2) C,2 F,2!<)! | (C,2"^poco rit." A,2)!>(! !^!G,4!>)! | %17
 C,4 z4 | z2"^a tempo"!f! F,2 F,2 A,2 | D,4 !breath!A,,4 |!p! C,4 _B,,4 | B,,4 F,2 F,2 | B,,4 F,4 | %23
 z2!mf! F,2 F,2 B,,2 |!>(! F,4 !breath!G,4!>)! | D,4 E,2 F,2 | B,,2!>(! D,2 C,4!>)! | %27
 !breath!F,,4 (F,2 D,2) | C,2 B,,2 F,2 !breath!G,2 |"^più lento" D,4 E,2 F,2 | %30
 B,,2 D,2!>(! C,4!>)! | !fermata!F,,4!pp!"^largo" B,,4 | !fermata!F,,8 |] %33

